Newaita/actions/16/edit-table-cell-split.svg

<svg height="16" viewBox="0 0 16 16" width="16" xmlns="http://www.w3.org/2000/svg"><g fill="#424242"><path d="m2.644531 1.449219c-.730469 0-1.320312.589843-1.320312 1.320312v10.585938c0 .734375.589843 1.324219 1.320312 1.324219h10.585938c.734375 0 1.324219-.589844 1.324219-1.324219v-10.585938c0-.730469-.589844-1.320312-1.324219-1.320312zm.664063 1.320312h9.261718c.363282 0 .660157.296875.660157.664063v9.261718c0 .363282-.296875.660157-.660157.660157h-9.261718c-.367188 0-.664063-.296875-.664063-.660157v-9.261718c0-.367188.296875-.664063.664063-.664063zm0 0"/><path d="m5.621094 2.109375h.664062v2.316406h-.664062zm0 0"/><path d="m9.59375 11.703125h.660156v2.3125h-.660156zm0 0"/><path d="m4.300781 5.746094v.664062h-2.316406v-.664062zm0 0"/><path d="m4.300781 9.71875v.660156h-2.316406v-.660156zm0 0"/><path d="m9.59375 2.109375h.660156v2.316406h-.660156zm0 0"/><path d="m5.621094 11.703125h.664062v2.3125h-.664062zm0 0"/><path d="m13.890625 5.746094v.664062h-2.3125v-.664062zm0 0"/><path d="m13.890625 9.71875v.660156h-2.3125v-.660156zm0 0"/></g><path d="m3.96875 4.09375v7.9375h7.9375v-7.9375zm.660156.660156h6.617188c-3.308594 2.316406-3.308594 4.300782 0 6.617188h-6.617188zm0 0" fill="#f44336"/></svg>

<svg xmlns="http://www.w3.org/2000/svg" xmlns:xlink="http://www.w3.org/1999/xlink" width="16px" height="16px" viewBox="0 0 16 16" version="1.1">
<g id="surface1">
     <defs>
  <style id="current-color-scheme" type="text/css">
   .ColorScheme-Text { color:#424242; } .ColorScheme-Highlight { color:#eeeeee; }
  </style>
 </defs>
<path style="fill:currentColor" class="ColorScheme-Text" d="M 2.644531 1.449219 C 1.914062 1.449219 1.324219 2.039062 1.324219 2.769531 L 1.324219 13.355469 C 1.324219 14.089844 1.914062 14.679688 2.644531 14.679688 L 13.230469 14.679688 C 13.964844 14.679688 14.554688 14.089844 14.554688 13.355469 L 14.554688 2.769531 C 14.554688 2.039062 13.964844 1.449219 13.230469 1.449219 Z M 3.308594 2.769531 L 12.570312 2.769531 C 12.933594 2.769531 13.230469 3.066406 13.230469 3.433594 L 13.230469 12.695312 C 13.230469 13.058594 12.933594 13.355469 12.570312 13.355469 L 3.308594 13.355469 C 2.941406 13.355469 2.644531 13.058594 2.644531 12.695312 L 2.644531 3.433594 C 2.644531 3.066406 2.941406 2.769531 3.308594 2.769531 Z M 3.308594 2.769531 "/>
     <defs>
  <style id="current-color-scheme" type="text/css">
   .ColorScheme-Text { color:#424242; } .ColorScheme-Highlight { color:#eeeeee; }
  </style>
 </defs>
<path style="fill:currentColor" class="ColorScheme-Text" d="M 5.621094 2.109375 L 6.285156 2.109375 L 6.285156 4.425781 L 5.621094 4.425781 Z M 5.621094 2.109375 "/>
     <defs>
  <style id="current-color-scheme" type="text/css">
   .ColorScheme-Text { color:#424242; } .ColorScheme-Highlight { color:#eeeeee; }
  </style>
 </defs>
<path style="fill:currentColor" class="ColorScheme-Text" d="M 9.59375 11.703125 L 10.253906 11.703125 L 10.253906 14.015625 L 9.59375 14.015625 Z M 9.59375 11.703125 "/>
     <defs>
  <style id="current-color-scheme" type="text/css">
   .ColorScheme-Text { color:#424242; } .ColorScheme-Highlight { color:#eeeeee; }
  </style>
 </defs>
<path style="fill:currentColor" class="ColorScheme-Text" d="M 4.300781 5.746094 L 4.300781 6.410156 L 1.984375 6.410156 L 1.984375 5.746094 Z M 4.300781 5.746094 "/>
     <defs>
  <style id="current-color-scheme" type="text/css">
   .ColorScheme-Text { color:#424242; } .ColorScheme-Highlight { color:#eeeeee; }
  </style>
 </defs>
<path style="fill:currentColor" class="ColorScheme-Text" d="M 4.300781 9.71875 L 4.300781 10.378906 L 1.984375 10.378906 L 1.984375 9.71875 Z M 4.300781 9.71875 "/>
     <defs>
  <style id="current-color-scheme" type="text/css">
   .ColorScheme-Text { color:#424242; } .ColorScheme-Highlight { color:#eeeeee; }
  </style>
 </defs>
<path style="fill:currentColor" class="ColorScheme-Text" d="M 9.59375 2.109375 L 10.253906 2.109375 L 10.253906 4.425781 L 9.59375 4.425781 Z M 9.59375 2.109375 "/>
     <defs>
  <style id="current-color-scheme" type="text/css">
   .ColorScheme-Text { color:#424242; } .ColorScheme-Highlight { color:#eeeeee; }
  </style>
 </defs>
<path style="fill:currentColor" class="ColorScheme-Text" d="M 5.621094 11.703125 L 6.285156 11.703125 L 6.285156 14.015625 L 5.621094 14.015625 Z M 5.621094 11.703125 "/>
     <defs>
  <style id="current-color-scheme" type="text/css">
   .ColorScheme-Text { color:#424242; } .ColorScheme-Highlight { color:#eeeeee; }
  </style>
 </defs>
<path style="fill:currentColor" class="ColorScheme-Text" d="M 13.890625 5.746094 L 13.890625 6.410156 L 11.578125 6.410156 L 11.578125 5.746094 Z M 13.890625 5.746094 "/>
     <defs>
  <style id="current-color-scheme" type="text/css">
   .ColorScheme-Text { color:#424242; } .ColorScheme-Highlight { color:#eeeeee; }
  </style>
 </defs>
<path style="fill:currentColor" class="ColorScheme-Text" d="M 13.890625 9.71875 L 13.890625 10.378906 L 11.578125 10.378906 L 11.578125 9.71875 Z M 13.890625 9.71875 "/>
<path style=" stroke:none;fill-rule:nonzero;fill:rgb(95.686275%,26.274511%,21.176471%);fill-opacity:1;" d="M 3.96875 4.09375 L 3.96875 12.03125 L 11.90625 12.03125 L 11.90625 4.09375 Z M 4.628906 4.753906 L 11.246094 4.753906 C 7.9375 7.070312 7.9375 9.054688 11.246094 11.371094 L 4.628906 11.371094 Z M 4.628906 4.753906 "/>
</g>
</svg>
